X:1
T:Title
%%score { 1 | 2 }
L:1/8
M:3/4
K:Bb
V:1 treble nm="Grand Piano"
V:2 bass 
V:1
 z2 z2[Q:1/4=121] [DF]2 | [DF]2 [DF]2 [DF]2 | [DF]2 [DF]2 [DF]2 | G2 G2 G2 | G6 | F6 | C4 [CE]2 | %7
 [B,D]6- | [B,D]4 [DF]2 | [DF]2 [DB]2 [DB]2 | [DB]2 [EA]2 [FB]2 | [Ec]4 [EG]2 | [Ec]6 | A6 | %14
 G4 F2 | [DB]6- |[M:2/4] [DB]4 |[M:1/4] [DF]2 |[M:3/4] [DF]4 [DB]2 | [DB]2 [EA]2 [FB]2 | [Ec]6 | %21
 [EG]4 [EG]2 | A6 | F4 F2 | [DB]6 | [DF]4 [DF]2 | [DF]4 [Fd]2 | [Fd]2 [Fc]2 [FB]2 | e6 | %29
[M:4/4] G6 AG |[M:3/4] F2 F2 F2 | G4 [Ec]2 | [DB]6- |[M:2/4] [DB]4 |] %34
V:2
 z2 z2 [B,,B,]2 | [B,,B,]2 [B,,B,]2 [B,,B,]2 | [B,,B,]2 [B,,B,]2 [B,,B,]2 | %3
 [E,B,E]2 [E,B,E]2 [E,B,E]2 | [E,B,E]6 | [F,A,C]6 | [F,A,]4 [F,,F,]2 | [B,,F,]6- | %8
 [B,,F,]4 [B,,B,]2 | [B,,B,]2 [B,,F,]2 [B,,F,]2 | [B,,F,]2 [C,F,]2 [D,B,]2 | [E,G,]4 [E,C]2 | %12
 [C,G,]6 | [F,CE]6 | [F,B,E]4 [F,A,E]2 | [B,,B,]6- |[M:2/4] [B,,B,]4 |[M:1/4] [B,,B,]2 | %18
[M:3/4] [B,,B,]4 [B,,F,]2 | [B,,F,]2 [C,F,]2 [D,F,]2 | [E,G,]6 | [E,C]4 [C,C]2 | [F,CE]6 | %23
 [F,A,E]4 [F,E]2 | [B,,F,]6 | [B,,B,]4 [B,,B,]2 | [B,,B,]4 [B,,B,]2 | [B,,B,]2 [C,A,]2 [D,_A,]2 | %28
 [E,G,E]6 |[M:4/4] [E,B,E]6 [=E,B,_D][E,B,D] |[M:3/4] [F,B,D]2 [F,B,D]2 [F,B,D]2 | %31
 [F,A,E]4 [F,,F,]2 | [B,,F,]6- |[M:2/4] [B,,F,]4 |] %34

